src/assets/images/custom1.svg

<svg width="81" height="82" viewBox="0 0 81 82" fill="none" xmlns="http://www.w3.org/2000/svg">
<g filter="url(#filter0_d_629_2)">
<rect x="4" y="3" width="73" height="73" rx="18" fill="#5CC4A8"/>
</g>
<path d="M27.8775 20L25.8656 22.0091L28.8592 25.0013L30.8683 22.9922L27.8775 20ZM54.1344 20L51.1408 22.9922L53.1513 25.0013L56.1435 22.0105L54.1344 20ZM41.0053 20.8917C40.5337 20.8974 40.0564 20.9245 39.5763 20.9831C39.562 20.9831 39.5477 20.9803 39.5334 20.9831C33.7376 21.6476 29.125 26.3302 28.3234 32.1003C27.6832 36.7444 29.598 40.9555 32.7888 43.6677C34.094 44.7816 34.9769 46.3102 35.2895 47.9974V56.5711H38.5475C39.0447 57.4241 39.9521 58 41.0053 58C42.0584 58 42.9658 57.4241 43.4631 56.5711H46.7211V50.8553H46.8554V49.1577C46.8554 47.0628 47.9442 44.9509 49.7133 43.309C52.0796 40.9398 53.8658 37.5746 53.8658 33.7093C53.8658 26.6503 48.0557 20.8259 41.0053 20.8917ZM41.0053 23.7496C46.5281 23.6724 51.0079 28.1936 51.0079 33.7093C51.0079 36.7015 49.6218 39.3365 47.7027 41.2542L47.7485 41.2999C45.8414 43.0585 44.6082 45.4278 44.2618 47.9988H38.0116C37.6973 45.5496 36.647 43.179 34.6622 41.4785C32.1372 39.3351 30.6325 36.1057 31.1355 32.459C31.76 27.9578 35.4124 24.3383 39.8878 23.8424C40.2573 23.7909 40.6295 23.7604 41.0024 23.751L41.0053 23.7496ZM21 33.7093V36.5672H25.2868V33.7093H21ZM56.7237 33.7093V36.5672H61.0105V33.7093H56.7237ZM28.8592 45.2752L25.867 48.266L27.8775 50.2765L30.8669 47.2843L28.8592 45.2752ZM53.1513 45.2752L51.1422 47.2843L54.133 50.2765L56.1435 48.266L53.1513 45.2752ZM38.1474 50.8567H43.8632V53.7146H38.1474V50.8567Z" fill="white"/>
<defs>
<filter id="filter0_d_629_2" x="0" y="0.5" width="81" height="81" filterUnits="userSpaceOnUse" color-interpolation-filters="sRGB">
<feFlood flood-opacity="0" result="BackgroundImageFix"/>
<feColorMatrix in="SourceAlpha" type="matrix" values="0 0 0 0 0 0 0 0 0 0 0 0 0 0 0 0 0 0 127 0" result="hardAlpha"/>
<feOffset dy="1.5"/>
<feGaussianBlur stdDeviation="2"/>
<feComposite in2="hardAlpha" operator="out"/>
<feColorMatrix type="matrix" values="0 0 0 0 0.360784 0 0 0 0 0.768627 0 0 0 0 0.658824 0 0 0 0.21 0"/>
<feBlend mode="normal" in2="BackgroundImageFix" result="effect1_dropShadow_629_2"/>
<feBlend mode="normal" in="SourceGraphic" in2="effect1_dropShadow_629_2" result="shape"/>
</filter>
</defs>
</svg>

<svg xmlns="http://www.w3.org/2000/svg" width="81" height="82" fill="none"><g filter="url(#a)"><rect width="73" height="73" x="4" y="3" fill="#5CC4A8" rx="18"/></g><path fill="#fff" d="m27.878 20-2.012 2.01L28.859 25l2.01-2.009zm26.256 0-2.993 2.992 2.01 2.01 2.992-2.991zm-13.129.892a13 13 0 0 0-1.429.091c-.014 0-.028-.003-.043 0-5.795.665-10.408 5.347-11.21 11.117-.64 4.644 1.275 8.856 4.466 11.568a7.5 7.5 0 0 1 2.5 4.33v8.573h3.258A2.84 2.84 0 0 0 41.006 58a2.84 2.84 0 0 0 2.458-1.429h3.258v-5.716h.134v-1.697c0-2.095 1.09-4.207 2.858-5.849 2.367-2.37 4.153-5.734 4.153-9.6 0-7.059-5.81-12.883-12.86-12.817m0 2.858c5.523-.078 10.003 4.444 10.003 9.96 0 2.992-1.386 5.627-3.305 7.544l.045.046a11.14 11.14 0 0 0-3.486 6.699h-6.25c-.315-2.45-1.365-4.82-3.35-6.52-2.525-2.144-4.03-5.373-3.526-9.02.624-4.501 4.276-8.12 8.752-8.617q.555-.077 1.114-.091zM21 33.71v2.857h4.287V33.71zm35.724 0v2.857h4.287V33.71zM28.859 45.274l-2.992 2.991 2.01 2.01 2.99-2.992zm24.292 0-2.009 2.01 2.991 2.992 2.01-2.011zm-15.004 5.582h5.716v2.858h-5.716z"/><defs><filter id="a" width="81" height="81" x="0" y=".5" color-interpolation-filters="sRGB" filterUnits="userSpaceOnUse"><feFlood flood-opacity="0" result="BackgroundImageFix"/><feColorMatrix in="SourceAlpha" result="hardAlpha" values="0 0 0 0 0 0 0 0 0 0 0 0 0 0 0 0 0 0 127 0"/><feOffset dy="1.5"/><feGaussianBlur stdDeviation="2"/><feComposite in2="hardAlpha" operator="out"/><feColorMatrix values="0 0 0 0 0.360784 0 0 0 0 0.768627 0 0 0 0 0.658824 0 0 0 0.21 0"/><feBlend in2="BackgroundImageFix" result="effect1_dropShadow_629_2"/><feBlend in="SourceGraphic" in2="effect1_dropShadow_629_2" result="shape"/></filter></defs></svg>
